SVG_Azure_All/Playbook.svg

<?xml version="1.0" encoding="UTF-8" standalone="no"?>
<!-- Generated by Microsoft Visio, SVG Export Playbook.svg Page-1 -->

<svg
   xmlns:dc="http://purl.org/dc/elements/1.1/"
   xmlns:cc="http://creativecommons.org/ns#"
   xmlns:rdf="http://www.w3.org/1999/02/22-rdf-syntax-ns#"
   xmlns:svg="http://www.w3.org/2000/svg"
   xmlns="http://www.w3.org/2000/svg"
   xmlns:sodipodi="http://sodipodi.sourceforge.net/DTD/sodipodi-0.dtd"
   xmlns:inkscape="http://www.inkscape.org/namespaces/inkscape"
   width="0.78735989in"
   height="0.6298601in"
   viewBox="0 0 56.68998 45.350018"
   xml:space="preserve"
   class="st4"
   version="1.1"
   id="svg49"
   sodipodi:docname="Playbook.svg"
   style="font-size:12px;overflow:visible;color-interpolation-filters:sRGB;fill:none;fill-rule:evenodd;stroke-linecap:square;stroke-miterlimit:3"
   inkscape:version="0.92.5 (2060ec1f9f, 2020-04-08)"><metadata
   id="metadata55"><rdf:RDF><cc:Work
       rdf:about=""><dc:format>image/svg+xml</dc:format><dc:type
         rdf:resource="http://purl.org/dc/dcmitype/StillImage" /></cc:Work></rdf:RDF></metadata><defs
   id="defs53" /><sodipodi:namedview
   pagecolor="#ffffff"
   bordercolor="#666666"
   borderopacity="1"
   objecttolerance="10"
   gridtolerance="10"
   guidetolerance="10"
   inkscape:pageopacity="0"
   inkscape:pageshadow="2"
   inkscape:window-width="640"
   inkscape:window-height="480"
   id="namedview51"
   showgrid="false"
   inkscape:zoom="1.9321052"
   inkscape:cx="37.795227"
   inkscape:cy="15.719002"
   inkscape:window-x="0"
   inkscape:window-y="0"
   inkscape:window-maximized="0"
   inkscape:current-layer="svg49" />
	<style
   type="text/css"
   id="style2">
	<![CDATA[
		.st1 {fill:#59b4d9;stroke:none;stroke-linecap:butt;stroke-width:12.24}
		.st2 {fill:#57a300;stroke:none;stroke-linecap:butt;stroke-width:12.24}
		.st3 {fill:#0072c6;stroke:none;stroke-linecap:butt;stroke-width:12.24}
		.st4 {fill:none;fill-rule:evenodd;font-size:12px;overflow:visible;stroke-linecap:square;stroke-miterlimit:3}
	]]>
	</style>

	<g
   id="g47"
   transform="translate(-12.24,-12.2443)">
		<title
   id="title4">Page-1</title>
		<g
   id="group2295-1"
   transform="translate(12.24,-34.0157)">
			<title
   id="title6">Playbook</title>
			<g
   id="group2296-2">
				<title
   id="title8">g18</title>
				<g
   id="shape2297-3"
   transform="translate(15.9874,-11.8062)">
					<title
   id="title10">path4</title>
					<path
   d="m 13.49,76.41 v -5.84 h -2.83 v 5.84 c 0,1.06 -0.91,1.99 -2.38,2.46 L 4.42,79.69 C 1.81,80.51 0,82.61 0,84.95 v 6.66 h 2.83 v -6.66 c 0,-1.05 0.91,-1.99 2.39,-2.46 l 3.85,-0.93 c 2.61,-0.7 4.42,-2.81 4.42,-5.15 z"
   class="st1"
   id="path12"
   inkscape:connector-curvature="0"
   style="fill:#59b4d9;stroke:none;stroke-width:12.23999977;stroke-linecap:butt" />
				</g>
				<g
   id="shape2298-5"
   transform="translate(12.4724,-6.42909)">
					<title
   id="title15">path6</title>
					<path
   d="M 9.75,89.27 V 83.9 c 0,-1.29 -1.02,-2.34 -2.27,-2.34 H 2.27 C 1.02,81.56 0,82.61 0,83.9 v 5.37 c 0,1.29 1.02,2.34 2.27,2.34 h 5.21 c 1.25,0 2.27,-1.05 2.27,-2.34 z"
   class="st2"
   id="path17"
   inkscape:connector-curvature="0"
   style="fill:#57a300;stroke:none;stroke-width:12.23999977;stroke-linecap:butt" />
				</g>
				<g
   id="shape2299-7"
   transform="translate(26.3055,-11.5724)">
					<title
   id="title20">path8</title>
					<path
   d="m 0,76.18 v -5.84 h 2.83 v 5.84 c 0,1.05 0.91,1.99 2.39,2.45 l 4.76,1.06 c 2.61,0.82 4.42,2.92 4.42,5.26 v 6.66 h -2.83 v -6.66 c 0,-1.05 -0.91,-1.99 -2.39,-2.46 L 4.42,81.44 C 1.81,80.62 0,78.52 0,76.18 Z"
   class="st1"
   id="path22"
   inkscape:connector-curvature="0"
   style="fill:#59b4d9;stroke:none;stroke-width:12.23999977;stroke-linecap:butt" />
				</g>
				<g
   id="shape2300-9"
   transform="translate(34.4693,-6.19531)">
					<title
   id="title25">path10</title>
					<path
   d="M 0,89.27 V 83.9 c 0,-1.29 1.02,-2.34 2.27,-2.34 h 5.21 c 1.25,0 2.27,1.05 2.27,2.34 v 5.37 c 0,1.29 -1.02,2.34 -2.27,2.34 H 2.27 C 1.02,91.61 0,90.56 0,89.27 Z"
   class="st2"
   id="path27"
   inkscape:connector-curvature="0"
   style="fill:#57a300;stroke:none;stroke-width:12.23999977;stroke-linecap:butt" />
				</g>
				<g
   id="shape2301-11"
   transform="translate(26.3055,-27.236)">
					<title
   id="title30">path12</title>
					<rect
   x="0"
   y="85.999199"
   width="3.1747999"
   height="5.6108499"
   class="st1"
   id="rect32"
   style="fill:#59b4d9;stroke:none;stroke-width:12.23999977;stroke-linecap:butt" />
				</g>
				<g
   id="shape2302-13"
   transform="translate(22.6772,-30.6259)">
					<title
   id="title35">path14</title>
					<path
   d="m 7.37,84.01 v 4.33 H 3.17 V 84.01 Z M 8.28,80.74 H 2.27 C 1.02,80.74 0,81.79 0,83.08 v 6.19 c 0,1.29 1.02,2.34 2.27,2.34 h 6.01 c 1.24,0 2.26,-1.05 2.26,-2.34 v -6.19 c 0,-1.29 -1.02,-2.34 -2.26,-2.34 z"
   class="st3"
   id="path37"
   inkscape:connector-curvature="0"
   style="fill:#0072c6;stroke:none;stroke-width:12.23999977;stroke-linecap:butt" />
				</g>
				<g
   id="shape2303-15">
					<title
   id="title40">path16</title>
					<path
   d="M 8.96,91.61 C 6.58,91.61 4.88,91.14 3.86,90.32 2.83,89.39 2.38,87.87 2.38,85.65 V 73.49 C 2.38,71.5 1.59,70.45 0,70.45 v -3.04 c 1.59,0 2.38,-1.05 2.38,-3.15 V 52.33 c 0,-2.22 0.45,-3.85 1.48,-4.79 1.02,-0.93 2.72,-1.28 5.1,-1.28 v 3.03 c -1.7,0 -2.61,0.94 -2.61,2.93 v 11.69 c 0,2.69 -0.79,4.32 -2.49,5.02 1.58,0.7 2.49,2.34 2.49,5.03 v 11.57 c 0,1.05 0.23,1.87 0.57,2.34 0.45,0.47 1.02,0.7 1.92,0.7 l 0.12,3.04 c -0.12,0 0,0 0,0 z M 47.74,46.26 c 2.38,0 4.08,0.46 5.1,1.28 1.02,0.94 1.47,2.46 1.47,4.68 v 12.15 c 0,1.99 0.8,3.04 2.38,3.04 v 3.04 c -1.58,0 -2.38,1.05 -2.38,3.16 v 11.8 c 0,2.23 -0.45,3.86 -1.47,4.8 -1.02,0.93 -2.72,1.4 -5.1,1.4 v -3.04 c 1.7,0 2.6,-0.93 2.6,-2.92 V 73.96 c 0,-2.69 0.8,-4.33 2.5,-5.03 -1.59,-0.7 -2.5,-2.33 -2.5,-5.02 V 52.33 c 0,-1.05 -0.22,-1.87 -0.56,-2.33 -0.46,-0.47 -1.02,-0.71 -1.93,-0.71 z"
   class="st1"
   id="path42"
   inkscape:connector-curvature="0"
   style="fill:#59b4d9;stroke:none;stroke-width:12.23999977;stroke-linecap:butt" />
				</g>
			</g>
		</g>
	</g>
</svg>

<?xml version="1.0" encoding="UTF-8" standalone="no"?>
<!DOCTYPE svg PUBLIC "-//W3C//DTD SVG 1.1//EN" "http://www.w3.org/Graphics/SVG/1.1/DTD/svg11.dtd">
<!-- Generated by Microsoft Visio, SVG Export Playbook.svg Page-1 -->
<svg xmlns="http://www.w3.org/2000/svg" xmlns:xlink="http://www.w3.org/1999/xlink" xmlns:ev="http://www.w3.org/2001/xml-events"
		width="1.1274in" height="1.27236in" viewBox="0 0 81.1729 91.6101" xml:space="preserve" color-interpolation-filters="sRGB"
		class="st4">
	<style type="text/css">
	<![CDATA[
		.st1 {fill:#59b4d9;stroke:none;stroke-linecap:butt;stroke-width:12.24}
		.st2 {fill:#57a300;stroke:none;stroke-linecap:butt;stroke-width:12.24}
		.st3 {fill:#0072c6;stroke:none;stroke-linecap:butt;stroke-width:12.24}
		.st4 {fill:none;fill-rule:evenodd;font-size:12px;overflow:visible;stroke-linecap:square;stroke-miterlimit:3}
	]]>
	</style>

	<g>
		<title>Page-1</title>
		<g id="group2280-1" transform="translate(12.24,-34.0157)">
			<title>Playbook</title>
			<g id="group2281-2">
				<title>g18</title>
				<g id="shape2282-3" transform="translate(15.9874,-11.8062)">
					<title>path4</title>
					<path d="M13.49 76.41 L13.49 70.57 L10.66 70.57 L10.66 76.41 C10.66 77.47 9.75 78.4 8.28 78.87 L4.42 79.69 C1.81
								 80.51 0 82.61 0 84.95 L0 91.61 L2.83 91.61 L2.83 84.95 C2.83 83.9 3.74 82.96 5.22 82.49 L9.07 81.56
								 C11.68 80.86 13.49 78.75 13.49 76.41 Z" class="st1"/>
				</g>
				<g id="shape2283-5" transform="translate(12.4724,-6.42909)">
					<title>path6</title>
					<path d="M9.75 89.27 L9.75 83.9 C9.75 82.61 8.73 81.56 7.48 81.56 L2.27 81.56 C1.02 81.56 0 82.61 0 83.9 L0 89.27
								 C0 90.56 1.02 91.61 2.27 91.61 L7.48 91.61 C8.73 91.61 9.75 90.56 9.75 89.27 Z" class="st2"/>
				</g>
				<g id="shape2284-7" transform="translate(26.3055,-11.5724)">
					<title>path8</title>
					<path d="M0 76.18 L0 70.34 L2.83 70.34 L2.83 76.18 C2.83 77.23 3.74 78.17 5.22 78.63 L9.98 79.69 C12.59 80.51
								 14.4 82.61 14.4 84.95 L14.4 91.61 L11.57 91.61 L11.57 84.95 C11.57 83.9 10.66 82.96 9.18 82.49 L4.42
								 81.44 C1.81 80.62 0 78.52 0 76.18 Z" class="st1"/>
				</g>
				<g id="shape2285-9" transform="translate(34.4693,-6.19531)">
					<title>path10</title>
					<path d="M0 89.27 L0 83.9 C0 82.61 1.02 81.56 2.27 81.56 L7.48 81.56 C8.73 81.56 9.75 82.61 9.75 83.9 L9.75 89.27
								 C9.75 90.56 8.73 91.61 7.48 91.61 L2.27 91.61 C1.02 91.61 0 90.56 0 89.27 Z" class="st2"/>
				</g>
				<g id="shape2286-11" transform="translate(26.3055,-27.236)">
					<title>path12</title>
					<rect x="0" y="85.9992" width="3.1748" height="5.61085" class="st1"/>
				</g>
				<g id="shape2287-13" transform="translate(22.6772,-30.6259)">
					<title>path14</title>
					<path d="M7.37 84.01 L7.37 88.34 L3.17 88.34 L3.17 84.01 L7.37 84.01 ZM8.28 80.74 L2.27 80.74 C1.02 80.74 0 81.79
								 0 83.08 L0 89.27 C0 90.56 1.02 91.61 2.27 91.61 L8.28 91.61 C9.52 91.61 10.54 90.56 10.54 89.27
								 L10.54 83.08 C10.54 81.79 9.52 80.74 8.28 80.74 Z" class="st3"/>
				</g>
				<g id="shape2288-15">
					<title>path16</title>
					<path d="M8.96 91.61 C6.58 91.61 4.88 91.14 3.86 90.32 C2.83 89.39 2.38 87.87 2.38 85.65 L2.38 73.49 C2.38 71.5
								 1.59 70.45 0 70.45 L0 67.41 C1.59 67.41 2.38 66.36 2.38 64.26 L2.38 52.33 C2.38 50.11 2.83 48.48
								 3.86 47.54 C4.88 46.61 6.58 46.26 8.96 46.26 L8.96 49.29 C7.26 49.29 6.35 50.23 6.35 52.22 L6.35
								 63.91 C6.35 66.6 5.56 68.23 3.86 68.93 C5.44 69.63 6.35 71.27 6.35 73.96 L6.35 85.53 C6.35 86.58
								 6.58 87.4 6.92 87.87 C7.37 88.34 7.94 88.57 8.84 88.57 L8.96 91.61 C8.84 91.61 8.96 91.61 8.96 91.61
								 ZM47.74 46.26 C50.12 46.26 51.82 46.72 52.84 47.54 C53.86 48.48 54.31 50 54.31 52.22 L54.31 64.37
								 C54.31 66.36 55.11 67.41 56.69 67.41 L56.69 70.45 C55.11 70.45 54.31 71.5 54.31 73.61 L54.31 85.41
								 C54.31 87.64 53.86 89.27 52.84 90.21 C51.82 91.14 50.12 91.61 47.74 91.61 L47.74 88.57 C49.44 88.57
								 50.34 87.64 50.34 85.65 L50.34 73.96 C50.34 71.27 51.14 69.63 52.84 68.93 C51.25 68.23 50.34 66.6
								 50.34 63.91 L50.34 52.33 C50.34 51.28 50.12 50.46 49.78 50 C49.32 49.53 48.76 49.29 47.85 49.29
								 L47.74 46.26 Z" class="st1"/>
				</g>
			</g>
		</g>
	</g>
</svg>
